X: 182
T: Lasses Have At Ye   [G]
R: jig
%Q: 3/8=110
M: 6/8
L: 1/8
Z: vmp. Peter Dunk 2010/11.from a transcription by Fynn Titford-Mock 2007
Z: 2014 John Chambers <jc:trillian.mit.edu> (added dance; reformatted tune for legibility.)
N: Chords by John Chambers (2014)
B: Thompson's Compleat Collection of 200 Favourite Country Dances Volume IV.
P: Play AABAB
K: G
% - - - - - - - - - - - - - - - - - - - - - - - - -
|:\
"G"GBB dBB | GBB g2B |\
"D"FAA dAA | FAA f2A |\
"G"GBB dBd |
"G"gdg bgb "I"|\
"D"afd "C(Em)"e/f/gB | "D7"Agf "G"g3 ::\
"D"(f/g/a)f (f/g/a)d | (f/g/a)f a2d |
"G"bag "D"fdf | "A7"eA^c "D"d2B |\
"C"cee "Am"caa | "G"Bdd Bgg "I"|\
"G"bgd "C(Em)"(e/f/g)B | "D7"Agf "G"g3 :|
% - - - - - - - - Dance description - - - - - - - -
%%begintext align
%% Foot it Hands 3 with the 2d Wo .|. the same with
%% the 2d Man :|. Cast off and lead thro' the 3d Cu: and
%% Cast up .|: lead thro' the top Cu: and cast off; right
%% hands across at bottom .|. left at top :||. lead out on both
%% sides .|| :||
%%endtext

%%sep 1 1 500
%%sep 1 1 500

